src/assets/images/match/smile.svg

<svg xmlns="http://www.w3.org/2000/svg" xml:space="preserve" id="Layer_1" x="0" y="0" style="enable-background:new 0 0 62.4 62.4" version="1.1" viewBox="0 0 62.4 62.4"><style>.st1{fill:url(#SVGID_2_)}.st2{fill:url(#SVGID_3_)}.st3{fill:url(#SVGID_4_)}.st4{fill:url(#SVGID_5_)}.st5{fill:url(#SVGID_6_)}.st6{fill:url(#SVGID_7_)}.st7{fill:url(#SVGID_8_)}.st8{fill:url(#SVGID_9_)}.st9{fill:url(#SVGID_10_)}.st10{fill:url(#SVGID_11_)}.st11{fill:url(#SVGID_12_)}.st12{fill:url(#SVGID_13_)}.st13{fill:url(#SVGID_14_)}.st14{fill:url(#SVGID_15_)}.st15{fill:url(#SVGID_16_)}.st16{fill:#2e3192}.st17{fill:#fff}.st18{fill:url(#SVGID_17_)}.st19{fill:#fec194}.st20{fill:#ff0061}.st21{fill:url(#SVGID_18_)}.st22{fill:#00ffa9}.st23{fill:#0d4dff}.st24{fill:url(#SVGID_19_)}.st25{fill:#1fc9fd}.st26{fill:#fc0061}.st27{fill:url(#SVGID_20_)}.st28{fill:#a32cdf}.st29{fill:#106ad2}.st30{fill:url(#SVGID_21_)}.st31{fill:#ffe53b}.st32{fill:#ff2525}.st33{fill:url(#SVGID_22_)}.st34{fill:#00c0ff}.st35{fill:#4218b8}.st36{fill:url(#SVGID_23_)}.st37{fill:#0ff}.st38{fill:#93278f}.st39{fill:url(#SVGID_24_)}.st40{fill:#ff0a6c}.st41{fill:#4a3cdb}.st42{fill:url(#SVGID_25_)}.st43{fill:#f7f7f7}.st44{fill:url(#SVGID_26_)}.st45{fill:url(#SVGID_27_)}.st46{fill:url(#SVGID_28_)}.st47{fill:url(#SVGID_29_)}.st48{fill:url(#SVGID_30_)}.st49{fill:url(#SVGID_31_)}.st50{fill:url(#SVGID_32_)}.st51{fill:url(#SVGID_33_)}.st52{fill:url(#SVGID_34_)}.st53{fill:url(#SVGID_35_)}.st54{fill:url(#SVGID_36_)}.st55{fill:url(#SVGID_37_)}.st56{fill:url(#SVGID_38_)}.st57{fill:url(#SVGID_39_)}.st58{fill:url(#SVGID_40_)}.st59{fill:url(#SVGID_41_)}.st60{fill:url(#SVGID_42_)}.st61{fill:url(#SVGID_43_)}.st62{fill:url(#SVGID_44_)}.st63{fill:url(#SVGID_45_)}.st64{fill:url(#SVGID_46_)}.st65{fill:url(#SVGID_47_)}.st66{fill:url(#SVGID_48_)}.st67{fill:url(#SVGID_49_)}.st68{fill:url(#SVGID_50_)}.st69{fill:url(#SVGID_51_)}.st70{fill:url(#SVGID_52_)}.st71{fill:url(#SVGID_53_)}.st72{fill:url(#SVGID_54_)}.st73{fill:url(#SVGID_55_)}.st74{fill:url(#SVGID_56_)}.st75{fill:url(#SVGID_57_)}.st76{fill:#0c509f}</style><linearGradient id="SVGID_1_" x1=".85" x2="61.513" y1="31.181" y2="31.181" gradientUnits="userSpaceOnUse"><stop offset="0" style="stop-color:#4a5197"/><stop offset=".486" style="stop-color:#a92c80"/><stop offset=".835" style="stop-color:#e71372"/><stop offset="1" style="stop-color:#ff0a6c"/></linearGradient><path d="M31.2 61.5C14.5 61.5.9 47.9.9 31.2.9 14.5 14.5.9 31.2.9c16.7 0 30.3 13.6 30.3 30.3 0 16.7-13.6 30.3-30.3 30.3zm0-56.7C16.7 4.8 4.8 16.7 4.8 31.2c0 14.5 11.8 26.3 26.3 26.3s26.3-11.8 26.3-26.3c.1-14.5-11.7-26.4-26.2-26.4zm.5 43.1h-.5c-10.1 0-14.7-7.5-15.6-11.4-.3-1.3.6-2.5 1.9-2.5h27.9c1.3 0 2.3 1.2 1.9 2.5-1 4-5.5 11.4-15.6 11.4zM20.5 38c1.4 2.5 4.5 5.9 10.7 5.9h.5c6.2 0 9.3-3.4 10.7-5.9H20.5zm.2-16.3c-1.9 0-3.5 1.6-3.5 3.5s1.6 3.5 3.5 3.5 3.5-1.6 3.5-3.5-1.6-3.5-3.5-3.5zm20.7 0c-1.9 0-3.5 1.6-3.5 3.5s1.6 3.5 3.5 3.5 3.5-1.6 3.5-3.5-1.6-3.5-3.5-3.5z" style="fill:url(#SVGID_1_)"/></svg>

<?xml version="1.0" encoding="utf-8"?>
<!-- Generator: Adobe Illustrator 23.0.3, SVG Export Plug-In . SVG Version: 6.00 Build 0)  -->
<svg version="1.1" id="Layer_1" xmlns="http://www.w3.org/2000/svg" xmlns:xlink="http://www.w3.org/1999/xlink" x="0px" y="0px"
	 viewBox="0 0 62.4 62.4" style="enable-background:new 0 0 62.4 62.4;" xml:space="preserve">
<style type="text/css">
	.st0{fill:url(#SVGID_1_);}
	.st1{fill:url(#SVGID_2_);}
	.st2{fill:url(#SVGID_3_);}
	.st3{fill:url(#SVGID_4_);}
	.st4{fill:url(#SVGID_5_);}
	.st5{fill:url(#SVGID_6_);}
	.st6{fill:url(#SVGID_7_);}
	.st7{fill:url(#SVGID_8_);}
	.st8{fill:url(#SVGID_9_);}
	.st9{fill:url(#SVGID_10_);}
	.st10{fill:url(#SVGID_11_);}
	.st11{fill:url(#SVGID_12_);}
	.st12{fill:url(#SVGID_13_);}
	.st13{fill:url(#SVGID_14_);}
	.st14{fill:url(#SVGID_15_);}
	.st15{fill:url(#SVGID_16_);}
	.st16{fill:#2E3192;}
	.st17{fill:#FFFFFF;}
	.st18{fill:url(#SVGID_17_);}
	.st19{fill:#FEC194;}
	.st20{fill:#FF0061;}
	.st21{fill:url(#SVGID_18_);}
	.st22{fill:#00FFA9;}
	.st23{fill:#0D4DFF;}
	.st24{fill:url(#SVGID_19_);}
	.st25{fill:#1FC9FD;}
	.st26{fill:#FC0061;}
	.st27{fill:url(#SVGID_20_);}
	.st28{fill:#A32CDF;}
	.st29{fill:#106AD2;}
	.st30{fill:url(#SVGID_21_);}
	.st31{fill:#FFE53B;}
	.st32{fill:#FF2525;}
	.st33{fill:url(#SVGID_22_);}
	.st34{fill:#00C0FF;}
	.st35{fill:#4218B8;}
	.st36{fill:url(#SVGID_23_);}
	.st37{fill:#00FFFF;}
	.st38{fill:#93278F;}
	.st39{fill:url(#SVGID_24_);}
	.st40{fill:#FF0A6C;}
	.st41{fill:#4A3CDB;}
	.st42{fill:url(#SVGID_25_);}
	.st43{fill:#F7F7F7;}
	.st44{fill:url(#SVGID_26_);}
	.st45{fill:url(#SVGID_27_);}
	.st46{fill:url(#SVGID_28_);}
	.st47{fill:url(#SVGID_29_);}
	.st48{fill:url(#SVGID_30_);}
	.st49{fill:url(#SVGID_31_);}
	.st50{fill:url(#SVGID_32_);}
	.st51{fill:url(#SVGID_33_);}
	.st52{fill:url(#SVGID_34_);}
	.st53{fill:url(#SVGID_35_);}
	.st54{fill:url(#SVGID_36_);}
	.st55{fill:url(#SVGID_37_);}
	.st56{fill:url(#SVGID_38_);}
	.st57{fill:url(#SVGID_39_);}
	.st58{fill:url(#SVGID_40_);}
	.st59{fill:url(#SVGID_41_);}
	.st60{fill:url(#SVGID_42_);}
	.st61{fill:url(#SVGID_43_);}
	.st62{fill:url(#SVGID_44_);}
	.st63{fill:url(#SVGID_45_);}
	.st64{fill:url(#SVGID_46_);}
	.st65{fill:url(#SVGID_47_);}
	.st66{fill:url(#SVGID_48_);}
	.st67{fill:url(#SVGID_49_);}
	.st68{fill:url(#SVGID_50_);}
	.st69{fill:url(#SVGID_51_);}
	.st70{fill:url(#SVGID_52_);}
	.st71{fill:url(#SVGID_53_);}
	.st72{fill:url(#SVGID_54_);}
	.st73{fill:url(#SVGID_55_);}
	.st74{fill:url(#SVGID_56_);}
	.st75{fill:url(#SVGID_57_);}
	.st76{fill:#0C509F;}
</style>
<linearGradient id="SVGID_1_" gradientUnits="userSpaceOnUse" x1="0.8495" y1="31.1807" x2="61.5126" y2="31.1807">
	<stop  offset="0" style="stop-color:#4A5197"/>
	<stop  offset="0.4857" style="stop-color:#A92C80"/>
	<stop  offset="0.8349" style="stop-color:#E71372"/>
	<stop  offset="1" style="stop-color:#FF0A6C"/>
</linearGradient>
<path class="st0" d="M31.2,61.5c-16.7,0-30.3-13.6-30.3-30.3c0-16.7,13.6-30.3,30.3-30.3c16.7,0,30.3,13.6,30.3,30.3
	C61.5,47.9,47.9,61.5,31.2,61.5z M31.2,4.8C16.7,4.8,4.8,16.7,4.8,31.2c0,14.5,11.8,26.3,26.3,26.3c14.5,0,26.3-11.8,26.3-26.3
	C57.5,16.7,45.7,4.8,31.2,4.8z M31.7,47.9h-0.5c-10.1,0-14.7-7.5-15.6-11.4l0,0c-0.3-1.3,0.6-2.5,1.9-2.5h27.9
	c1.3,0,2.3,1.2,1.9,2.5v0C46.3,40.5,41.8,47.9,31.7,47.9z M20.5,38c1.4,2.5,4.5,5.9,10.7,5.9h0.5c6.2,0,9.3-3.4,10.7-5.9H20.5z
	 M20.7,21.7c-1.9,0-3.5,1.6-3.5,3.5s1.6,3.5,3.5,3.5s3.5-1.6,3.5-3.5S22.6,21.7,20.7,21.7z M41.4,21.7c-1.9,0-3.5,1.6-3.5,3.5
	s1.6,3.5,3.5,3.5s3.5-1.6,3.5-3.5S43.3,21.7,41.4,21.7z"/>
</svg>
